X: 1
T: Devil Among the Tailors
C: Trad
R: Reel
M: 4/4
L: 1/8
K: A
Z: ABC transcription by Verge Roller
r: 32
|: eg | "A" a2 eg a2 eg | "A" a2 ea fedc | "Bm" dfBf dfBf | "Bm" dfba "E7" gefg |
"A" a2 eg a2 eg | "A" a2 ea fedc | "Bm" defe "A" dcBA | "E7" E2 G2 "A" A2 :|
|: ed | "A" ceAe ceAe | "A" ceag fedc | "Bm" dfBf dfBf | "Bm" dfba "E7" gfed |
"A" ceAe ceAe | "A" ceag fedc | "Bm" defd "A" ecBA | "E7" E2 G2 "A" A2 :|
